X:1
T:Bocca soave
T:Bocca soave
T:Tomaso Cecchino
T:Source : Canti Spirituali a uno, due et tre voci + BC---Venetia---G.Vincenti---1613. Editor : André Vierendeels (05/10/16). 
T:Notes : Original clefs : C1, F4 Figures in BC are notated in original print 
T:©
T:©
C:Tomaso Cecchino
Z:©
%%score 1 2
L:1/8
Q:1/4=120
M:4/4
K:F
V:1 treble nm="Soprano" snm="S"
V:2 bass nm="BC"
V:1
 c8 | d3 A A3 B | G4 G4 | z2 GA B4- | B2 A4 G2 | G4 F4 :: z2 A4 EF | D4 D4 | d2 c2 B2 G2 | %9
w: Boc-|ca so- a- v'e|cà- ra,|non piu dol-|* ce ma|ma- ra,|ec- co ti|ba- cio,|per pro- var an-|
 A4 A2 d2 | c2 B2 _e4- | e2 d2 c4 | B4 z2 d2 | A2 B2 ^F3 G | A4 G4 :: z2 A4 EF | ^C2 C2 z4 | %17
w: ch'i- o, di|quel as- sen-|* tio ri-|o, che|già per me suc-|chia- sti,|Ah trop- po'ar-|dis- co,|
 A>B c2 ^c2 dA | B2 B2 z4 | A4 z2 A2 | E3 E ^F4 | ^F4 z2 G2 | G4 z dcB | A4 z cBG | G2 B2 A>B c2- | %25
w: ah _ _ _ trop- po'ar-|dis- co,|si, per-|don ti chieg-|gio, ma|tu ne sei ca-|gion, ne sei ca-|gio, che trop- * *|
 cG A/G/A/B/ G4 | F8 |] %27
w: * po'a- * * * * ma-|sti.|
V:2
 F,4 E,4 |"^#" D,4 D,4 | G,,4 G,,4 | C,4 D,4 | C,4 C,4 | =B,,2 C,2 F,,4 ::"^#" F,,4 A,,4 | %7
 D,,4 D,,4 | B,,2 F,2 G,2 _E,2 |"^#" D,4 D,4 | _E,8 | F,8 | B,,4 B,,4 | D,8 | %14
"^-natural" D,4 G,,4 ::"^#" F,,3 G,, A,,4 | A,,6 G,,2 |"^#" F,,3 G,, A,,2 D,2 | G,,3 A,, C,2 D,2 | %19
"^#""^#" D,4 A,,4- | A,,4 D,,4 |"^-natural" D,,4 G,,4 | C,4 =B,,2 C,2 | D,4 A,,2 B,,2 | %24
 C,2 G,,2 F,,4 | C,8 | F,,8 |] %27

